img/sprite/gradient/card-gamepad.svg

<svg width="48" height="48" viewBox="0 0 48 48" fill="none" xmlns="http://www.w3.org/2000/svg">
<mask id="mask0_84_3546" style="mask-type:luminance" maskUnits="userSpaceOnUse" x="0" y="0" width="48" height="48">
<path d="M0 3.8147e-06H48V48H0V3.8147e-06Z" fill="white"/>
</mask>
<g mask="url(#mask0_84_3546)">
<path fill-rule="evenodd" clip-rule="evenodd" d="M26.0658 27.9989C24.6886 28.0017 23.3115 28.0017 21.9343 27.9989C21.546 27.9981 21.2305 28.3122 21.2297 28.7006C21.2289 29.0889 21.5431 29.4043 21.9314 29.4051C23.3105 29.4079 24.6896 29.4079 26.0687 29.4051C26.457 29.4043 26.7712 29.0889 26.7704 28.7006C26.7696 28.3122 26.4541 27.9981 26.0658 27.9989Z" fill="url(#paint0_linear_84_3546)"/>
<path fill-rule="evenodd" clip-rule="evenodd" d="M33.9835 37.2889C34.1868 36.958 34.0834 36.525 33.7525 36.3217C31.8732 35.1671 30.4573 33.2745 29.9752 30.9452C29.8965 30.5649 29.5244 30.3204 29.1441 30.3991C28.7639 30.4778 28.5194 30.8499 28.5981 31.2302C29.1623 33.9559 30.8214 36.1714 33.0164 37.5199C33.3473 37.7232 33.7803 37.6197 33.9835 37.2889Z" fill="url(#paint1_linear_84_3546)"/>
<path fill-rule="evenodd" clip-rule="evenodd" d="M7.61545 38.686C12.9525 39.9747 18.2939 36.588 19.4029 31.2298C19.4817 30.8495 19.2372 30.4775 18.8569 30.3988C18.4767 30.3201 18.1046 30.5645 18.0259 30.9448C17.0781 35.5237 12.5108 38.4219 7.94452 37.3188L7.94227 37.3183C7.88466 37.3046 7.82777 37.2908 7.76944 37.2767L7.76908 37.2766C3.48177 36.2417 0.743731 32.0361 1.5455 27.7024C2.22372 24.0369 3.14475 20.3301 4.23927 16.5875C5.24116 13.164 8.33105 10.776 11.8984 10.6541L11.8986 10.6541C19.9666 10.3762 28.0335 10.3762 36.1015 10.6541L36.1017 10.6541C39.669 10.776 42.7589 13.164 43.7608 16.5875C44.8553 20.3301 45.7764 24.0369 46.4546 27.7024C47.2563 32.0361 44.5183 36.2417 40.231 37.2766L40.2306 37.2767C40.2025 37.2835 40.1739 37.2904 40.1447 37.2974L40.1442 37.2975L40.1431 37.2978C40.1143 37.3047 40.0849 37.3117 40.0555 37.3188M7.61545 38.686C7.55566 38.6718 7.497 38.6576 7.43973 38.6437L7.43912 38.6436C7.439 38.6436 7.43888 38.6435 7.43876 38.6435C2.42816 37.4339 -0.775497 32.5178 0.162713 27.4466L0.162716 27.4466C0.85137 23.7246 1.78471 19.9707 2.88956 16.1927L2.88959 16.1926C4.06273 12.1837 7.67959 9.39122 11.8502 9.24865C19.9504 8.96966 28.0497 8.96966 36.1499 9.24865C40.3205 9.39122 43.9373 12.1837 45.1105 16.1926L45.1105 16.1927C46.2154 19.9707 47.1487 23.7246 47.8374 27.4466C48.7756 32.5178 45.5719 37.4339 40.5613 38.6435C40.5315 38.6507 40.5016 38.6579 40.4724 38.6649C40.443 38.672 40.4143 38.6788 40.386 38.6857L40.3858 38.6858C38.8185 39.0644 37.2502 39.0394 35.7879 38.6794C35.4108 38.5866 35.1804 38.2056 35.2732 37.8286C35.3661 37.4515 35.747 37.2211 36.1241 37.3139C37.373 37.6214 38.7126 37.6433 40.0553 37.3189" fill="url(#paint2_linear_84_3546)"/>
<path fill-rule="evenodd" clip-rule="evenodd" d="M18.814 30.3857C17.4182 30.3857 16.2866 29.2542 16.2866 27.8584C16.2866 26.4626 17.4182 25.3311 18.814 25.3311C20.2098 25.3311 21.3413 26.4626 21.3413 27.8584C21.3413 29.2542 20.2098 30.3857 18.814 30.3857ZM14.8804 27.8584C14.8804 30.0309 16.6416 31.792 18.814 31.792C20.9864 31.792 22.7476 30.0309 22.7476 27.8584C22.7476 25.6859 20.9864 23.9249 18.814 23.9249C16.6416 23.9249 14.8804 25.6859 14.8804 27.8584Z" fill="url(#paint3_linear_84_3546)"/>
<path fill-rule="evenodd" clip-rule="evenodd" d="M29.1862 30.3857C27.7904 30.3857 26.6588 29.2542 26.6588 27.8584C26.6588 26.4626 27.7904 25.3311 29.1862 25.3311C30.582 25.3311 31.7135 26.4626 31.7135 27.8584C31.7135 29.2542 30.582 30.3857 29.1862 30.3857ZM25.2526 27.8584C25.2526 30.0309 27.0138 31.792 29.1862 31.792C31.3586 31.792 33.1198 30.0309 33.1198 27.8584C33.1198 25.6859 31.3586 23.9249 29.1862 23.9249C27.0138 23.9249 25.2526 25.6859 25.2526 27.8584Z" fill="url(#paint4_linear_84_3546)"/>
<path fill-rule="evenodd" clip-rule="evenodd" d="M10.262 26.7666L10.3038 26.7666C11.8318 26.7659 13.0733 25.5462 13.1145 24.0239L13.1145 24.0238C13.1157 23.9791 13.1169 23.9345 13.1181 23.8898C13.1627 23.8886 13.2074 23.8875 13.2521 23.8863L13.2522 23.8862C14.7745 23.845 15.9943 22.6035 15.9949 21.0754V21.0337C15.9943 19.5056 14.7745 18.2641 13.2522 18.2229L13.2521 18.2229C13.2074 18.2217 13.1628 18.2205 13.1181 18.2193C13.1169 18.1746 13.1158 18.1299 13.1145 18.0852L13.1145 18.0851C13.0733 16.5629 11.8318 15.3432 10.3038 15.3424H10.262C8.73404 15.3432 7.49244 16.5628 7.45115 18.0851L7.45115 18.0852C7.44994 18.1299 7.44876 18.1746 7.44761 18.2193C7.40297 18.2205 7.35834 18.2217 7.31371 18.2229L7.31362 18.2229C5.79126 18.2641 4.57155 19.5056 4.5708 21.0336V21.0755C4.57155 22.6035 5.79126 23.845 7.31362 23.8862L7.31371 23.8863C7.35834 23.8875 7.40298 23.8886 7.44761 23.8898C7.44877 23.9345 7.44995 23.9791 7.45115 24.0238L7.45115 24.0239C7.49244 25.5462 8.73404 26.7659 10.262 26.7666ZM10.3031 25.3604H10.2627C10.2627 25.3604 10.2626 25.3604 10.2626 25.3604C10.2625 25.3604 10.2624 25.3604 10.2624 25.3604C9.50115 25.3598 8.87771 24.7518 8.85689 23.9859M10.3034 25.3604C10.3034 25.3604 10.3033 25.3604 10.3032 25.3604C10.3032 25.3604 10.3031 25.3604 10.3031 25.3604M10.3034 25.3604C11.0646 25.3598 11.688 24.7519 11.7088 23.9859L10.3034 25.3604ZM8.85689 23.9858C8.84971 23.7199 8.84347 23.4541 8.83826 23.1884C8.83085 22.811 8.52673 22.5068 8.14931 22.4992C7.88342 22.4939 7.61753 22.4877 7.35174 22.4805M11.7088 23.9858C11.716 23.7199 11.7222 23.454 11.7275 23.1882L11.7088 23.9858ZM13.2141 22.4805C12.9482 22.4877 12.6823 22.4939 12.4165 22.4992C12.0392 22.5068 11.7351 22.8109 11.7275 23.1882M13.2142 22.4805C13.9803 22.4597 14.5882 21.8363 14.5886 21.0751C14.5886 21.075 14.5886 21.0749 14.5886 21.0748V21.0343M5.97705 21.0749C5.97705 21.0749 5.97705 21.0748 5.97705 21.0748V21.0343C5.97705 21.0343 5.97705 21.0342 5.97705 21.0342C5.97705 21.0341 5.97705 21.0341 5.97705 21.034C5.97761 20.2728 6.58553 19.6494 7.35165 19.6286C7.61747 19.6214 7.88331 19.6152 8.14906 19.61C8.52659 19.6026 8.83085 19.2983 8.83826 18.9208C8.84347 18.655 8.84971 18.3891 8.85689 18.1233M5.97705 21.0749C5.97705 21.075 5.97705 21.0751 5.97705 21.0751V21.0749ZM5.97705 21.0751C5.97761 21.8363 6.58553 22.4597 7.35165 22.4805L5.97705 21.0751ZM14.5886 21.034C14.5882 20.2729 13.9803 19.6494 13.2142 19.6286L14.5886 21.034ZM13.2141 19.6286C12.9482 19.6214 12.6824 19.6152 12.4167 19.61C12.0393 19.6026 11.7351 19.2984 11.7275 18.921C11.7222 18.655 11.716 18.3891 11.7088 18.1233M8.85689 18.1232C8.87772 17.3571 9.50134 16.749 10.2627 16.7487H10.3031C11.0644 16.749 11.688 17.357 11.7088 18.1232" fill="url(#paint5_linear_84_3546)"/>
<path fill-rule="evenodd" clip-rule="evenodd" d="M40.4572 19.8584C39.9467 20.3688 39.119 20.3688 38.6086 19.8584C38.0981 19.3479 38.0981 18.5202 38.6086 18.0098C39.119 17.4993 39.9467 17.4993 40.4572 18.0098C40.9676 18.5202 40.9676 19.3479 40.4572 19.8584ZM37.6142 20.8527C38.6738 21.9124 40.3919 21.9124 41.4515 20.8527C42.5112 19.7931 42.5112 18.075 41.4515 17.0154C40.3919 15.9557 38.6738 15.9557 37.6142 17.0154C36.5545 18.075 36.5545 19.7931 37.6142 20.8527Z" fill="url(#paint6_linear_84_3546)"/>
<path fill-rule="evenodd" clip-rule="evenodd" d="M36.2164 24.0996C35.706 24.61 34.8783 24.61 34.3678 24.0996C33.8574 23.5891 33.8574 22.7614 34.3678 22.251C34.8783 21.7405 35.706 21.7405 36.2164 22.251C36.7269 22.7614 36.7269 23.5891 36.2164 24.0996ZM33.3735 25.0939C34.4331 26.1536 36.1512 26.1536 37.2108 25.0939C38.2705 24.0343 38.2705 22.3162 37.2108 21.2566C36.1512 20.1969 34.4331 20.1969 33.3735 21.2566C32.3138 22.3162 32.3138 24.0343 33.3735 25.0939Z" fill="url(#paint7_linear_84_3546)"/>
<path fill-rule="evenodd" clip-rule="evenodd" d="M20.0294 19.7577C20.0294 20.8623 20.9249 21.7578 22.0296 21.7578H26.1901C27.2948 21.7578 28.1903 20.8623 28.1903 19.7577C28.1903 18.6529 27.2948 17.7574 26.1901 17.7574H22.0296C20.9249 17.7574 20.0294 18.6529 20.0294 19.7577ZM22.0296 20.3516C21.7016 20.3516 21.4357 20.0857 21.4357 19.7577C21.4357 19.4295 21.7016 19.1637 22.0296 19.1637H26.1901C26.5181 19.1637 26.784 19.4295 26.784 19.7577C26.784 20.0857 26.5181 20.3516 26.1901 20.3516H22.0296Z" fill="url(#paint8_linear_84_3546)"/>
<path fill-rule="evenodd" clip-rule="evenodd" d="M16.4456 14.4339C16.6281 14.0912 16.4983 13.6654 16.1555 13.4828C15.4411 13.1022 14.9353 12.3781 14.8575 11.521C14.8094 10.9717 14.7824 10.4243 14.7797 9.87926C14.7777 9.49094 14.4614 9.17771 14.073 9.17964C13.6847 9.18156 13.3715 9.49792 13.3734 9.88624C13.3763 10.4734 13.4055 11.06 13.4567 11.6447L13.4569 11.6467C13.5782 12.9885 14.3716 14.1259 15.4944 14.724C15.8372 14.9065 16.263 14.7767 16.4456 14.4339Z" fill="url(#paint9_linear_84_3546)"/>
<path fill-rule="evenodd" clip-rule="evenodd" d="M30.7891 13.7666C26.7301 13.9253 22.6704 13.9421 18.6107 13.8151C18.2226 13.803 17.8981 14.1078 17.886 14.4959C17.8738 14.8841 18.1786 15.2086 18.5668 15.2207C22.6595 15.3487 26.7522 15.3318 30.8439 15.1718M33.1424 11.5213C33.031 12.7589 32.0258 13.7185 30.7893 13.7666L30.7891 13.7666M33.1424 11.5213C33.1905 10.972 33.2176 10.4245 33.2203 9.87944C33.2222 9.49112 33.5386 9.17789 33.9269 9.17981C34.3152 9.18174 34.6285 9.4981 34.6266 9.88642C34.6236 10.4736 34.5945 11.0601 34.5433 11.6449L34.5431 11.6464C34.3693 13.5829 32.7928 15.096 30.844 15.1718" fill="url(#paint10_linear_84_3546)"/>
</g>
<defs>
<linearGradient id="paint0_linear_84_3546" x1="21.2297" y1="28.703" x2="26.7704" y2="28.703" gradientUnits="userSpaceOnUse">
<stop offset="0" stop-color="#0CBAF1"/>
<stop offset="1" stop-color="#E95CE9"/>
</linearGradient>
<linearGradient id="paint1_linear_84_3546" x1="28.5834" y1="34.0042" x2="34.0877" y2="34.0042" gradientUnits="userSpaceOnUse">
<stop offset="0" stop-color="#0CBAF1"/>
<stop offset="1" stop-color="#E95CE9"/>
</linearGradient>
<linearGradient id="paint2_linear_84_3546" x1="-0.000244141" y1="23.9997" x2="48.0003" y2="23.9997" gradientUnits="userSpaceOnUse">
<stop offset="0" stop-color="#0CBAF1"/>
<stop offset="1" stop-color="#E95CE9"/>
</linearGradient>
<linearGradient id="paint3_linear_84_3546" x1="14.8804" y1="27.8584" x2="22.7476" y2="27.8584" gradientUnits="userSpaceOnUse">
<stop offset="0" stop-color="#0CBAF1"/>
<stop offset="1" stop-color="#E95CE9"/>
</linearGradient>
<linearGradient id="paint4_linear_84_3546" x1="25.2526" y1="27.8584" x2="33.1198" y2="27.8584" gradientUnits="userSpaceOnUse">
<stop offset="0" stop-color="#0CBAF1"/>
<stop offset="1" stop-color="#E95CE9"/>
</linearGradient>
<linearGradient id="paint5_linear_84_3546" x1="4.5708" y1="21.0545" x2="15.9949" y2="21.0545" gradientUnits="userSpaceOnUse">
<stop offset="0" stop-color="#0CBAF1"/>
<stop offset="1" stop-color="#E95CE9"/>
</linearGradient>
<linearGradient id="paint6_linear_84_3546" x1="36.8195" y1="18.9341" x2="42.2463" y2="18.9341" gradientUnits="userSpaceOnUse">
<stop offset="0" stop-color="#0CBAF1"/>
<stop offset="1" stop-color="#E95CE9"/>
</linearGradient>
<linearGradient id="paint7_linear_84_3546" x1="32.5787" y1="23.1753" x2="38.0055" y2="23.1753" gradientUnits="userSpaceOnUse">
<stop offset="0" stop-color="#0CBAF1"/>
<stop offset="1" stop-color="#E95CE9"/>
</linearGradient>
<linearGradient id="paint8_linear_84_3546" x1="20.0294" y1="19.7576" x2="28.1903" y2="19.7576" gradientUnits="userSpaceOnUse">
<stop offset="0" stop-color="#0CBAF1"/>
<stop offset="1" stop-color="#E95CE9"/>
</linearGradient>
<linearGradient id="paint9_linear_84_3546" x1="13.3734" y1="11.9931" x2="16.5282" y2="11.9931" gradientUnits="userSpaceOnUse">
<stop offset="0" stop-color="#0CBAF1"/>
<stop offset="1" stop-color="#E95CE9"/>
</linearGradient>
<linearGradient id="paint10_linear_84_3546" x1="17.8856" y1="12.2427" x2="34.6266" y2="12.2427" gradientUnits="userSpaceOnUse">
<stop offset="0" stop-color="#0CBAF1"/>
<stop offset="1" stop-color="#E95CE9"/>
</linearGradient>
</defs>
</svg>

<svg width="48" height="48" fill="none" xmlns="http://www.w3.org/2000/svg"><mask id="a" style="mask-type:luminance" maskUnits="userSpaceOnUse" x="0" y="0" width="48" height="48"><path d="M0 0h48v48H0V0Z" fill="#fff"/></mask><g mask="url(#a)" fill-rule="evenodd" clip-rule="evenodd"><path d="M26.066 27.999c-1.377.003-2.755.003-4.132 0a.703.703 0 1 0-.003 1.406c1.38.003 2.759.003 4.138 0A.703.703 0 1 0 26.066 28Z" fill="url(#b)"/><path d="M33.983 37.289a.703.703 0 0 0-.23-.967 8.252 8.252 0 0 1-3.778-5.377.703.703 0 1 0-1.377.285 9.659 9.659 0 0 0 4.418 6.29c.331.203.764.1.968-.231Z" fill="url(#c)"/><path d="M7.615 38.686c5.338 1.289 10.679-2.098 11.788-7.456a.703.703 0 1 0-1.377-.285c-.948 4.579-5.515 7.477-10.081 6.374h-.003l-.173-.042c-4.287-1.035-7.025-5.24-6.224-9.575.679-3.665 1.6-7.372 2.694-11.115a8.267 8.267 0 0 1 7.66-5.933 351.418 351.418 0 0 1 24.203 0 8.267 8.267 0 0 1 7.659 5.933c1.094 3.743 2.015 7.45 2.694 11.115.801 4.334-1.937 8.54-6.224 9.575l-.086.02h-.002l-.087.022m-32.44 1.367-.176-.042h-.001c-5.01-1.21-8.214-6.126-7.276-11.197.688-3.722 1.622-7.476 2.727-11.254a9.674 9.674 0 0 1 8.96-6.944c8.1-.28 16.2-.28 24.3 0a9.674 9.674 0 0 1 8.96 6.944c1.105 3.778 2.039 7.532 2.727 11.254.939 5.07-2.265 9.987-7.276 11.197l-.089.02-.086.022a9.675 9.675 0 0 1-4.598-.007.703.703 0 1 1 .336-1.365 8.267 8.267 0 0 0 3.931.005" fill="url(#d)"/><path d="M18.814 30.386a2.527 2.527 0 1 1 0-5.055 2.527 2.527 0 0 1 0 5.055Zm-3.934-2.528a3.934 3.934 0 1 0 7.868 0 3.934 3.934 0 0 0-7.868 0Z" fill="url(#e)"/><path d="M29.186 30.386a2.527 2.527 0 1 1 0-5.055 2.527 2.527 0 0 1 0 5.055Zm-3.933-2.528a3.934 3.934 0 1 0 7.867 0 3.934 3.934 0 0 0-7.867 0Z" fill="url(#f)"/><path d="M10.262 26.767h.042c1.528-.001 2.77-1.22 2.81-2.743l.004-.134.134-.004a2.815 2.815 0 0 0 2.743-2.81v-.042c0-1.528-1.22-2.77-2.743-2.811l-.134-.004-.004-.134a2.815 2.815 0 0 0-2.81-2.743h-.042a2.816 2.816 0 0 0-2.81 2.743l-.004.134-.134.004a2.815 2.815 0 0 0-2.743 2.81v.043c0 1.527 1.22 2.769 2.743 2.81l.134.004.003.134a2.816 2.816 0 0 0 2.811 2.743Zm.041-1.407h-.04a1.41 1.41 0 0 1-1.406-1.374m1.446 1.374a1.41 1.41 0 0 0 1.406-1.374l-1.406 1.374Zm-1.446-1.374c-.007-.266-.014-.532-.019-.798a.703.703 0 0 0-.689-.689c-.266-.005-.531-.011-.797-.018m4.357 1.505.018-.798-.018.798Zm1.505-1.506c-.266.008-.532.014-.798.02a.703.703 0 0 0-.689.688m1.487-.707a1.409 1.409 0 0 0 1.375-1.406v-.04m-8.612.04v-.041a1.41 1.41 0 0 1 1.375-1.405c.265-.008.531-.014.797-.019a.703.703 0 0 0 .69-.69c.004-.265.01-.53.018-.797m-2.88 2.952Zm0 0a1.41 1.41 0 0 0 1.375 1.405l-1.375-1.405Zm8.612-.041a1.41 1.41 0 0 0-1.375-1.405l1.375 1.405Zm-1.375-1.405a106.31 106.31 0 0 0-.797-.019.703.703 0 0 1-.69-.689l-.018-.798m-2.852 0a1.41 1.41 0 0 1 1.406-1.374h.04a1.41 1.41 0 0 1 1.406 1.374" fill="url(#g)"/><path d="M40.457 19.858a1.307 1.307 0 1 1-1.848-1.849 1.307 1.307 0 0 1 1.848 1.85Zm-2.843.995a2.713 2.713 0 1 0 3.838-3.837 2.713 2.713 0 0 0-3.838 3.837Z" fill="url(#h)"/><path d="M36.216 24.1a1.307 1.307 0 1 1-1.848-1.85 1.307 1.307 0 0 1 1.848 1.85Zm-2.843.994a2.713 2.713 0 1 0 3.838-3.837 2.713 2.713 0 0 0-3.837 3.837Z" fill="url(#i)"/><path d="M20.03 19.758a2 2 0 0 0 2 2h4.16a2 2 0 1 0 0-4h-4.16a2 2 0 0 0-2 2Zm2 .594a.594.594 0 0 1 0-1.188h4.16a.594.594 0 1 1 0 1.188h-4.16Z" fill="url(#j)"/><path d="M16.446 14.434a.703.703 0 0 0-.29-.951 2.472 2.472 0 0 1-1.298-1.962 19.953 19.953 0 0 1-.078-1.642.703.703 0 0 0-1.407.007c.003.587.033 1.174.084 1.759v.002a3.878 3.878 0 0 0 2.037 3.077.703.703 0 0 0 .952-.29Z" fill="url(#k)"/><path d="M30.79 13.767c-4.06.158-8.12.175-12.18.048a.703.703 0 0 0-.043 1.406c4.093.128 8.185.11 12.277-.05m2.298-3.65a2.46 2.46 0 0 1-2.353 2.246m2.353-2.246c.048-.549.076-1.097.078-1.642a.703.703 0 1 1 1.407.007 21.416 21.416 0 0 1-.084 1.759v.001a3.867 3.867 0 0 1-3.699 3.526" fill="url(#l)"/></g><defs><linearGradient id="b" x1="21.23" y1="28.703" x2="26.77" y2="28.703" gradientUnits="userSpaceOnUse"><stop offset="0" stop-color="#0CBAF1"/><stop offset="1" stop-color="#E95CE9"/></linearGradient><linearGradient id="c" x1="28.583" y1="34.004" x2="34.088" y2="34.004" gradientUnits="userSpaceOnUse"><stop offset="0" stop-color="#0CBAF1"/><stop offset="1" stop-color="#E95CE9"/></linearGradient><linearGradient id="d" x1="0" y1="24" x2="48" y2="24" gradientUnits="userSpaceOnUse"><stop offset="0" stop-color="#0CBAF1"/><stop offset="1" stop-color="#E95CE9"/></linearGradient><linearGradient id="e" x1="14.88" y1="27.858" x2="22.748" y2="27.858" gradientUnits="userSpaceOnUse"><stop offset="0" stop-color="#0CBAF1"/><stop offset="1" stop-color="#E95CE9"/></linearGradient><linearGradient id="f" x1="25.253" y1="27.858" x2="33.12" y2="27.858" gradientUnits="userSpaceOnUse"><stop offset="0" stop-color="#0CBAF1"/><stop offset="1" stop-color="#E95CE9"/></linearGradient><linearGradient id="g" x1="4.571" y1="21.055" x2="15.995" y2="21.055" gradientUnits="userSpaceOnUse"><stop offset="0" stop-color="#0CBAF1"/><stop offset="1" stop-color="#E95CE9"/></linearGradient><linearGradient id="h" x1="36.819" y1="18.934" x2="42.246" y2="18.934" gradientUnits="userSpaceOnUse"><stop offset="0" stop-color="#0CBAF1"/><stop offset="1" stop-color="#E95CE9"/></linearGradient><linearGradient id="i" x1="32.579" y1="23.175" x2="38.005" y2="23.175" gradientUnits="userSpaceOnUse"><stop offset="0" stop-color="#0CBAF1"/><stop offset="1" stop-color="#E95CE9"/></linearGradient><linearGradient id="j" x1="20.029" y1="19.758" x2="28.19" y2="19.758" gradientUnits="userSpaceOnUse"><stop offset="0" stop-color="#0CBAF1"/><stop offset="1" stop-color="#E95CE9"/></linearGradient><linearGradient id="k" x1="13.373" y1="11.993" x2="16.528" y2="11.993" gradientUnits="userSpaceOnUse"><stop offset="0" stop-color="#0CBAF1"/><stop offset="1" stop-color="#E95CE9"/></linearGradient><linearGradient id="l" x1="17.886" y1="12.243" x2="34.627" y2="12.243" gradientUnits="userSpaceOnUse"><stop offset="0" stop-color="#0CBAF1"/><stop offset="1" stop-color="#E95CE9"/></linearGradient></defs></svg>
